X: 1
T: Gramps' Jig
C: Debbie Scott
R: jig
Z: 2019 John Chambers <jc:trillian.mit.edu>
M: 6/8
L: 1/8
K: G
|:\
"G"d2B "D/F#"cAF | "Em"GGG "G7/D"G2F |\
"C"EGc "G/B"DGB | "Am"CEA "D"A,FA |\
"G"d2B "D7"cAF | "G"def "G"(g/a/g/f/g) |
"C"efg "G"dcA |[1 "D7"AGF "G"GBc :|\
[2 "D7"AGF "G"GBd |: "C"ecA "G/B"dBG |\
"D"AFD "G7"Dcd | "C"ecA "G"dBG |
"D7"def "G"(g/a/g/f/g) | "C"ecA "G/B"dBG |\
"D7"AFD "G7"DCB, | "Am"CEc "D7"AGF |\
[1 "G"G2G "D7"Bcd :|[2 "G"G3- G3 |]
